X: 10825
T: Dramshell, The
R: reel
M: 4/4
K: Amajor
|F2a2 fecA|cedc BAGE|F2a2 fecf|1 ecBG AFFA:|2 ecBG AFFg||
afcf cfaf|gebe gbeg|afcf cfaf|ecBG AFFg|
afcf cfaf|gebe gbeg|afge fecf|ecBG AFF||

